X: 1
T: The Gun In The Thatch
R: reel
M: 4/4
L: 1/8
K: Gmaj
dc||BGAF DGG2|gfge fdcd|BG (3GGG DGFG|FGAB c2dc|
BGAF DGG2|gfge fdcd|BGAF DG (3GGG|FGAB c2Bc||
|:dg{a}gf (3ggg bg|dgbg fgaf|dg{a}gf (3ggg dg|1 bgaf gfef:|2 bgaf gedc||


Tune 1045	Setting 21186

